X: 5
T:Fiddler's Whim
M:6/8
L:1/8
R:Jig
K:D
G|"D"[F2A2] A dcB|"D"AFA f2e|"D"dAF DFA|"Em"BEE E2 [FA]|!
"D"[F2A2]A dcB|"D"AFA "G"g2 f|"A"ecA ceg|"D"fdd d2:||!
f/g/|"D"a2 f b 2f|"D"agf "G"g2 e|"A"c2 e a2 e|"A"gfe "D"f2 g|!
"D"a2 f b2 f|"D"agf "G"g2 e|"A"c2 e "(C#)"gfe|"D"d2 f d2:||!
